editor/icons/GridToggle.svg

<svg clip-rule="evenodd" fill-rule="evenodd" stroke-linejoin="round" stroke-miterlimit="2" viewBox="0 0 16 16" xmlns="http://www.w3.org/2000/svg"><path d="m11.485 8.261c1.648 0 3.78 1.248 4.49 3.691.033.116.033.24 0 .356-.725 2.538-2.877 3.692-4.489 3.692-1.613 0-3.765-1.154-4.49-3.692-.034-.12-.033-.248.004-.367.751-2.424 2.837-3.68 4.485-3.68zm0 1.29c-1.415 0-2.58 1.165-2.58 2.58s1.165 2.58 2.58 2.58 2.58-1.165 2.58-2.58-1.165-2.58-2.58-2.58z" fill="#e0e0e0"/><path d="m11.485 10.841c-.708 0-1.29.582-1.29 1.29s.582 1.29 1.29 1.29 1.29-.582 1.29-1.29-.582-1.29-1.29-1.29z" fill="#e0e0e0" fill-rule="nonzero"/><g fill="#fff" fill-opacity=".6" stroke-width="1.30316"><circle cx="2.021873" cy="2.043098" r="1.099867"/><circle cx="2.021873" cy="6.962987" r="1.099867"/><circle cx="2.021873" cy="11.951797" r="1.099867"/><circle cx="7.052023" cy="2.043098" r="1.099867"/><circle cx="7.052023" cy="6.962987" r="1.099867"/><circle cx="12.040823" cy="2.043098" r="1.099867"/></g></svg>

<svg viewBox="0 0 16 16" height="16" width="16" xmlns="http://www.w3.org/2000/svg"> <path
   d="M11.485,8.261C13.133,8.261 15.265,9.509 15.975,11.952C16.008,12.068 16.008,12.192 15.975,12.308C15.25,14.846 13.098,16 11.486,16C9.873,16 7.721,14.846 6.996,12.308C6.962,12.188 6.963,12.06 7,11.941C7.751,9.517 9.837,8.261 11.485,8.261ZM11.485,9.551C10.07,9.551 8.905,10.716 8.905,12.131C8.905,13.546 10.07,14.711 11.485,14.711C12.9,14.711 14.065,13.546 14.065,12.131C14.065,10.716 12.9,9.551 11.485,9.551Z"
   style="fill:rgb(224,224,224);"
   id="path1" />
    <path
   d="M11.485,10.841C10.777,10.841 10.195,11.423 10.195,12.131C10.195,12.839 10.777,13.421 11.485,13.421C12.193,13.421 12.775,12.839 12.775,12.131C12.775,11.423 12.193,10.841 11.485,10.841Z"
   style="fill:rgb(224,224,224);fill-rule:nonzero;"
   id="path2" />
    <circle
   cx="2.0218732"
   cy="2.0430975"
   r="1.099867"
   style="fill:#ffffff;fill-opacity:0.6;stroke-width:1.30316"
   id="circle2" />
    <circle
   cx="2.0218732"
   cy="6.9629874"
   r="1.099867"
   style="fill:#ffffff;fill-opacity:0.6;stroke-width:1.30316"
   id="circle3" />
    <circle
   cx="2.0218732"
   cy="11.951797"
   r="1.099867"
   style="fill:#ffffff;fill-opacity:0.6;stroke-width:1.30316"
   id="circle4" />
    <circle
   cx="7.0520229"
   cy="2.0430975"
   r="1.099867"
   style="fill:#ffffff;fill-opacity:0.6;stroke-width:1.30316"
   id="circle5" />
    <circle
   cx="7.0520229"
   cy="6.9629874"
   r="1.099867"
   style="fill:#ffffff;fill-opacity:0.6;stroke-width:1.30316"
   id="circle6" />
    <circle
   cx="12.040823"
   cy="2.0430975"
   r="1.099867"
   style="fill:#ffffff;fill-opacity:0.6;stroke-width:1.30316"
   id="circle7" /></svg>
